src/assets/svg/bx-task.svg

<svg xmlns="http://www.w3.org/2000/svg" width="24" height="24" viewBox="0 0 24 24"><path d="M5,22h14c1.103,0,2-0.897,2-2V5c0-1.103-0.897-2-2-2h-2c0-0.553-0.447-1-1-1H8C7.447,2,7,2.447,7,3H5C3.897,3,3,3.897,3,5 v15C3,21.103,3.897,22,5,22z M5,5h2v2h10V5h2v15H5V5z"/><path d="M11 13.586L9.207 11.793 7.793 13.207 11 16.414 16.207 11.207 14.793 9.793z"/></svg>

<svg xmlns="http://www.w3.org/2000/svg" width="18" height="20" viewBox="0 0 18 20">
  <g id="bx-task" transform="translate(-3 -2)" opacity="0.8">
    <path id="Path_1" data-name="Path 1" d="M5,22H19a2,2,0,0,0,2-2V5a2,2,0,0,0-2-2H17a1,1,0,0,0-1-1H8A1,1,0,0,0,7,3H5A2,2,0,0,0,3,5V20A2,2,0,0,0,5,22ZM5,5H7V7H17V5h2V20H5Z" fill="#fff"/>
    <path id="Path_2" data-name="Path 2" d="M11,13.586,9.207,11.793,7.793,13.207,11,16.414l5.207-5.207L14.793,9.793Z" fill="#fff"/>
  </g>
</svg>
